X:24
T:Sarabande in D minor (HWV 437)
C:Handel, G.F.
M:3/4
L:1/8
Q:1/4=52
K:Dmin
|:A2|d4 cd|e2 dc B2|c4 Bc|d2 cB A2|
G4 AB|c2 BA G2|F2 GA Bc|d4:|

